dist/img/svg/panda.svg

<svg width="1060" height="839" fill="none" xmlns="http://www.w3.org/2000/svg"><g clip-path="url(#clip0_94:301)"><path fill-rule="evenodd" clip-rule="evenodd" d="M635.24-100.164c26.938 4.81 54.271 9.69 83.436 18.996l1.734.565c41.386 13.465 258.638 84.15 323.63 341.063 65.97 260.746-96.551 485.053-334.131 545.157-237.579 60.104-498.806-72.7-563.023-326.539C82.669 225.239 251.176 56.973 282.939 29.067c9.207-8.529 17.899-16.153 26.368-23.582 25.908-22.724 49.736-43.624 79.861-83.013 18.61-25.638 32.467-58.421 22.153-128.066 46.226 33.457 101.078 71.905 136.868 84.838 29.747 10.36 58.173 15.435 87.051 20.592zM379.917 583.104c-18.349-76.724 35.4-166.75 125.825-190.978 67.12-17.598 132.161 7.37 186.212 28.119 38.62 14.825 71.629 27.496 95.775 20.946 24.704-6.783 54.807-40.712 84.524-74.208 29.256-32.976 58.139-65.531 81.129-71.347 49.278-12.466 76.008 35.212 83.718 65.712 7.72 30.501 11.8 88.083-2.85 128.417-14.66 40.335-26.81 57.048-54.609 61.964-16.824 2.809-47.15-15.571-79.403-35.118-37.204-22.548-76.971-46.65-101.53-41.57-25.566 5.534-58.061 38.249-94.777 75.214h-.001c-46.543 46.858-99.87 100.546-154.467 114.358-59.132 14.96-79.099 10.546-102.094 2.783-34.794-13.186-57.49-40.955-67.494-84.458l.042.166zm459.775-35.713c-13.737-4.932-30.765-1.682-46.544 2.31l.055-.014c-1.835.464-3.58.891-5.256 1.301-12.734 3.117-21.43 5.246-34.663 15.088-14.689 10.926-28.025 30.561-36.631 43.233l-.495.728c-8.585 12.637-8.413 21.236-.559 27.362 7.816 6.098 12.489-.23 25.642-18.039l.187-.253a625.88 625.88 0 003.375-4.629v-.001c11.494-15.87 20.789-28.704 52.274-36.669 33.739-8.535 43.128 1.857 53.086 12.881l.392.433.278.307.101.112c10.128 11.188 11.624 12.84 17.477 7.199a14.277 14.277 0 006.546-10.155 14.226 14.226 0 00-3.604-11.518l-.079-.109-.001-.001c-6.434-8.862-17.901-24.654-31.581-29.566zm-62.211 156.013c-63.118 15.968-95.927 10.629-119.621-.132l.138-.153c-.49-.17-.889-.321-1.231-.451l-.007-.003c-.632-.239-1.068-.404-1.519-.481-1.008-.17-2.092.104-5.595.99a23.665 23.665 0 00-13.049 10.592 14.576 14.576 0 00.717 16.805 14.586 14.586 0 004.511 3.86c53.319 28.429 124.541 7.236 176.56-11.156a220.871 220.871 0 0093.025-67.509 15.384 15.384 0 002.66-8.828 15.362 15.362 0 00-2.867-8.757c-2.003-3.726-7.472-8.575-14.597.518-16.145 19.781-56.006 48.738-119.125 64.705z" fill="url(#paint0_linear_94:301)" fill-opacity=".192"/></g><defs><linearGradient id="paint0_linear_94:301" x1="2078.24" y1="-1263.97" x2="44.182" y2="-375.764" gradientUnits="userSpaceOnUse"><stop/><stop offset="1" stop-color="#fff" stop-opacity="0"/></linearGradient><clipPath id="clip0_94:301"><path fill="#fff" transform="rotate(-14.197 -408.576 -50.88)" d="M0 0h923.603v1053.56H0z"/></clipPath></defs></svg>

<svg width="1060" height="839" viewBox="0 0 1060 839" fill="none" xmlns="http://www.w3.org/2000/svg">
<g clip-path="url(#clip0_94:301)">
<path fill-rule="evenodd" clip-rule="evenodd" d="M635.24 -100.164C662.178 -95.3539 689.511 -90.4734 718.676 -81.1677C719.214 -80.9919 719.792 -80.8038 720.41 -80.603C761.796 -67.1378 979.048 3.54615 1044.04 260.46C1110.01 521.206 947.489 745.513 709.909 805.617C472.33 865.721 211.103 732.917 146.886 479.078C82.6686 225.239 251.176 56.9732 282.939 29.0667C292.146 20.538 300.838 12.914 309.307 5.48495C335.215 -17.2392 359.043 -38.1394 389.168 -77.5281C407.778 -103.166 421.635 -135.949 411.321 -205.594C457.547 -172.137 512.399 -133.689 548.189 -120.756C577.936 -110.396 606.362 -105.321 635.24 -100.164ZM379.917 583.104C361.568 506.38 415.317 416.354 505.742 392.126C572.862 374.528 637.903 399.496 691.954 420.245C730.574 435.07 763.583 447.741 787.729 441.191C812.433 434.408 842.536 400.479 872.253 366.983L872.253 366.983C901.509 334.007 930.392 301.452 953.382 295.636C1002.66 283.17 1029.39 330.848 1037.1 361.348C1044.82 391.849 1048.9 449.431 1034.25 489.765C1019.59 530.1 1007.44 546.813 979.641 551.729C962.817 554.538 932.491 536.158 900.238 516.611C863.034 494.063 823.267 469.961 798.708 475.041C773.142 480.575 740.647 513.29 703.931 550.255L703.93 550.255C657.387 597.113 604.06 650.801 549.463 664.613C490.331 679.573 470.364 675.159 447.369 667.396C412.575 654.21 389.879 626.441 379.875 582.938L379.917 583.104ZM839.692 547.391C825.955 542.459 808.927 545.709 793.148 549.701L793.203 549.687C791.368 550.151 789.623 550.578 787.947 550.988C775.213 554.105 766.517 556.234 753.284 566.076C738.595 577.002 725.259 596.637 716.653 609.309L716.158 610.037C707.573 622.674 707.745 631.273 715.599 637.399C723.415 643.497 728.088 637.169 741.241 619.36L741.428 619.107C742.587 617.537 743.705 615.994 744.803 614.478L744.803 614.477C756.297 598.607 765.592 585.773 797.077 577.808C830.816 569.273 840.205 579.665 850.163 590.689L850.555 591.122L850.833 591.429L850.934 591.541C861.062 602.729 862.558 604.381 868.411 598.74C870.18 597.628 871.683 596.142 872.814 594.387C873.944 592.632 874.676 590.652 874.957 588.585C875.237 586.518 875.06 584.415 874.437 582.425C873.814 580.435 872.761 578.605 871.353 577.067L871.274 576.958L871.273 576.957C864.839 568.095 853.372 552.303 839.692 547.391ZM777.481 703.404C714.363 719.372 681.554 714.033 657.86 703.272L657.998 703.119C657.508 702.949 657.109 702.798 656.767 702.668L656.76 702.665C656.128 702.426 655.692 702.261 655.241 702.184C654.233 702.014 653.149 702.288 649.646 703.174C644.145 704.991 639.501 708.76 636.597 713.766C635.513 715.448 634.787 717.334 634.464 719.307C634.141 721.28 634.227 723.298 634.717 725.235C635.207 727.173 636.091 728.989 637.314 730.571C638.536 732.153 640.072 733.466 641.825 734.431C695.144 762.86 766.366 741.667 818.385 723.275C854.817 709.369 886.916 686.075 911.41 655.766C913.179 653.163 914.107 650.082 914.07 646.938C914.033 643.794 913.032 640.738 911.203 638.181C909.2 634.455 903.731 629.606 896.606 638.699C880.461 658.48 840.6 687.437 777.481 703.404Z" fill="url(#paint0_linear_94:301)" fill-opacity="0.192"/>
</g>
<defs>
<linearGradient id="paint0_linear_94:301" x1="2078.24" y1="-1263.97" x2="44.1823" y2="-375.764" gradientUnits="userSpaceOnUse">
<stop/>
<stop offset="1" stop-color="white" stop-opacity="0"/>
</linearGradient>
<clipPath id="clip0_94:301">
<rect width="923.603" height="1053.56" fill="white" transform="translate(0 -101.76) rotate(-14.197)"/>
</clipPath>
</defs>
</svg>
